images/diagrams/http/messages/http-message-anatomy.svg

<svg width="820" height="303" viewBox="0 0 820 303" fill="none"
  xmlns="http://www.w3.org/2000/svg">
  <g id="Group 1">
    <rect id="Rectangle 2" x="512" y="50" width="277" height="224" rx="3" fill="#D9D9D9"/>
    <rect id="Rectangle 1" x="35" y="52" width="275" height="224" rx="3" fill="#D9D9D9"/>
    <g id="Rectangle 3" style="mix-blend-mode:darken">
      <rect x="42" y="62" width="260" height="20" rx="5" fill="#B9DAF2"/>
    </g>
    <g id="Rectangle 6" style="mix-blend-mode:darken">
      <rect x="519" y="62" width="260" height="20" rx="5" fill="#B9DAF2"/>
    </g>
    <g id="Rectangle 4" style="mix-blend-mode:darken">
      <rect x="42" y="82" width="260" height="101" rx="5" fill="#DCB9F2"/>
    </g>
    <g id="Rectangle 7" style="mix-blend-mode:darken">
      <rect x="519" y="82" width="260" height="101" rx="5" fill="#DCB9F2"/>
    </g>
    <g id="Rectangle 5" style="mix-blend-mode:darken">
      <rect x="42" y="204" width="260" height="58" rx="5" fill="#CFF2B9"/>
    </g>
    <g id="Rectangle 8" style="mix-blend-mode:darken">
      <rect x="519" y="204" width="260" height="58" rx="5" fill="#CFF2B9"/>
    </g>
    <text id="POST / HTTP/1.1 Host: developer.mozilla.org User-Agent: curl/8.6.0 Accept: */* Content-Type: application/json Content-Length: 345 { &#34;data&#34;: &#34;ABC123&#34; }" fill="black" style="white-space:pre" font-family="monospace" font-size="12" letter-spacing="0em">
      <tspan x="48" y="76.6611">POST / HTTP/1.1&#10;</tspan>
      <tspan x="48" y="96.6611">Host: developer.mozilla.org&#10;</tspan>
      <tspan x="48" y="116.661">User-Agent: curl/8.6.0&#10;</tspan>
      <tspan x="48" y="136.661">Accept: */*&#10;</tspan>
      <tspan x="48" y="156.661">Content-Type: application/json&#10;</tspan>
      <tspan x="48" y="176.661">Content-Length: 345&#10;</tspan>
      <tspan x="48" y="196.661">&#10;</tspan>
      <tspan x="48" y="216.661">{&#10;</tspan>
      <tspan x="48" y="236.661">&#34;data&#34;: &#34;ABC123&#34;</tspan>
      <tspan x="48" y="256.661">}</tspan>
    </text>
    <text id="HTTP/1.1 403 Forbidden Server: Apache Date: Fri, 21 Jun 2024 12:52:39 GMT Content-Length: 678 Content-Type: text/html Cache-Control: no-store &#60;!DOCTYPE html&#62; &#60;html lang=&#34;en&#34;&#62; (more data&#226;&#128;&#166;)" fill="black" style="white-space: pre" font-family="monospace" font-size="12" letter-spacing="0em">
      <tspan x="523" y="76.6611">HTTP/1.1 403 Forbidden&#10;</tspan>
      <tspan x="523" y="96.6611">Server: Apache&#10;</tspan>
      <tspan x="523" y="116.661">Date: Fri, 21 Jun 2024 12:52:39 GMT&#10;</tspan>
      <tspan x="523" y="136.661">Content-Length: 678&#10;</tspan>
      <tspan x="523" y="156.661">Content-Type: text/html&#10;</tspan>
      <tspan x="523" y="176.661">Cache-Control: no-store&#10;</tspan>
      <tspan x="523" y="196.661">&#10;</tspan>
      <tspan x="523" y="216.661">&#60;!DOCTYPE html&#62;&#10;</tspan>
      <tspan x="523" y="236.661">&#60;html lang=&#34;en&#34;&#62;&#10;</tspan>
      <tspan x="523" y="256.661">(more data&#x2026;)</tspan>
    </text>
    <text id="Request" fill="black" style="white-space: pre" font-family="monospace" font-size="12" letter-spacing="0em">
      <tspan x="147" y="33.6611">Request</tspan>
    </text>
    <text id="Response" fill="black" style="white-space: pre" font-family="monospace" font-size="12" letter-spacing="0em">
      <tspan x="631" y="33.6611">Response</tspan>
    </text>
    <text id="Start line" fill="black" style="white-space: pre" font-family="monospace" font-size="12" letter-spacing="0em">
      <tspan x="374.465" y="76.6611">Start line</tspan>
    </text>
    <text id="Headers" fill="black" style="white-space: pre" font-family="monospace" font-size="12" letter-spacing="0em">
      <tspan x="385.275" y="137.661">Headers</tspan>
    </text>
    <text id="Empty line" fill="black" style="white-space: pre" font-family="monospace" font-size="12" letter-spacing="0em">
      <tspan x="374.465" y="198.661">Empty line</tspan>
    </text>
    <text id="Body" fill="black" style="white-space: pre" font-family="monospace" font-size="12" letter-spacing="0em">
      <tspan x="396.086" y="236.661">Body</tspan>
    </text>
    <path id="Arrow 1" d="M318.646 71.6464C318.451 71.8417 318.451 72.1583 318.646 72.3536L321.828 75.5355C322.024 75.7308 322.34 75.7308 322.536 75.5355C322.731 75.3403 322.731 75.0237 322.536 74.8284L319.707 72L322.536 69.1716C322.731 68.9763 322.731 68.6597 322.536 68.4645C322.34 68.2692 322.024 68.2692 321.828 68.4645L318.646 71.6464ZM319 72.5H368V71.5H319V72.5Z" fill="black"/>
    <path id="Arrow 5" d="M503.354 72.3536C503.549 72.1583 503.549 71.8417 503.354 71.6464L500.172 68.4645C499.976 68.2692 499.66 68.2692 499.464 68.4645C499.269 68.6597 499.269 68.9763 499.464 69.1716L502.293 72L499.464 74.8284C499.269 75.0237 499.269 75.3403 499.464 75.5355C499.66 75.7308 499.976 75.7308 500.172 75.5355L503.354 72.3536ZM454 72.5H503V71.5H454V72.5Z" fill="black"/>
    <path id="Arrow 2" d="M319.646 132.646C319.451 132.842 319.451 133.158 319.646 133.354L322.828 136.536C323.024 136.731 323.34 136.731 323.536 136.536C323.731 136.34 323.731 136.024 323.536 135.828L320.707 133L323.536 130.172C323.731 129.976 323.731 129.66 323.536 129.464C323.34 129.269 323.024 129.269 322.828 129.464L319.646 132.646ZM320 133.5H368V132.5H320V133.5Z" fill="black"/>
    <path id="Arrow 6" d="M501.354 133.354C501.549 133.158 501.549 132.842 501.354 132.646L498.172 129.464C497.976 129.269 497.66 129.269 497.464 129.464C497.269 129.66 497.269 129.976 497.464 130.172L500.293 133L497.464 135.828C497.269 136.024 497.269 136.34 497.464 136.536C497.66 136.731 497.976 136.731 498.172 136.536L501.354 133.354ZM453 133.5H501V132.5H453V133.5Z" fill="black"/>
    <path id="Arrow 3" d="M318.646 193.646C318.451 193.842 318.451 194.158 318.646 194.354L321.828 197.536C322.024 197.731 322.34 197.731 322.536 197.536C322.731 197.34 322.731 197.024 322.536 196.828L319.707 194L322.536 191.172C322.731 190.976 322.731 190.66 322.536 190.464C322.34 190.269 322.024 190.269 321.828 190.464L318.646 193.646ZM319 194.5H355V193.5H319V194.5Z" fill="black"/>
    <path id="Arrow 7" d="M503.354 194.354C503.549 194.158 503.549 193.842 503.354 193.646L500.172 190.464C499.976 190.269 499.66 190.269 499.464 190.464C499.269 190.66 499.269 190.976 499.464 191.172L502.293 194L499.464 196.828C499.269 197.024 499.269 197.34 499.464 197.536C499.66 197.731 499.976 197.731 500.172 197.536L503.354 194.354ZM455 194.5H503V193.5H455V194.5Z" fill="black"/>
    <path id="Arrow 4" d="M318.646 231.646C318.451 231.842 318.451 232.158 318.646 232.354L321.828 235.536C322.024 235.731 322.34 235.731 322.536 235.536C322.731 235.34 322.731 235.024 322.536 234.828L319.707 232L322.536 229.172C322.731 228.976 322.731 228.66 322.536 228.464C322.34 228.269 322.024 228.269 321.828 228.464L318.646 231.646ZM319 232.5H368V231.5H319V232.5Z" fill="black"/>
    <path id="Arrow 8" d="M502.354 232.354C502.549 232.158 502.549 231.842 502.354 231.646L499.172 228.464C498.976 228.269 498.66 228.269 498.464 228.464C498.269 228.66 498.269 228.976 498.464 229.172L501.293 232L498.464 234.828C498.269 235.024 498.269 235.34 498.464 235.536C498.66 235.731 498.976 235.731 499.172 235.536L502.354 232.354ZM453 232.5H502V231.5H453V232.5Z" fill="black"/>
  </g>
</svg>

<svg xmlns="http://www.w3.org/2000/svg" width="820" height="303" fill="none"><rect width="277" height="224" x="512" y="50" fill="#D9D9D9" rx="3"/><rect width="275" height="224" x="35" y="52" fill="#D9D9D9" rx="3"/><rect width="260" height="20" x="42" y="62" fill="#B9DAF2" rx="5" style="mix-blend-mode:darken"/><rect width="260" height="20" x="519" y="62" fill="#B9DAF2" rx="5" style="mix-blend-mode:darken"/><rect width="260" height="101" x="42" y="82" fill="#DCB9F2" rx="5" style="mix-blend-mode:darken"/><rect width="260" height="101" x="519" y="82" fill="#DCB9F2" rx="5" style="mix-blend-mode:darken"/><rect width="260" height="58" x="42" y="204" fill="#CFF2B9" rx="5" style="mix-blend-mode:darken"/><rect width="260" height="58" x="519" y="204" fill="#CFF2B9" rx="5" style="mix-blend-mode:darken"/><text fill="#000" font-family="monospace" font-size="12" letter-spacing="0em" style="white-space:pre"><tspan x="48" y="76.7">POST / HTTP/1.1</tspan><tspan x="48" y="96.7">Host: developer.mozilla.org</tspan><tspan x="48" y="116.7">User-Agent: curl/8.6.0</tspan><tspan x="48" y="136.7">Accept: */*</tspan><tspan x="48" y="156.7">Content-Type: application/json</tspan><tspan x="48" y="176.7">Content-Length: 345</tspan><tspan x="48" y="216.7">{</tspan><tspan x="48" y="236.7">&quot;data&quot;: &quot;ABC123&quot;</tspan><tspan x="48" y="256.7">}</tspan></text><text fill="#000" font-family="monospace" font-size="12" letter-spacing="0em" style="white-space:pre"><tspan x="523" y="76.7">HTTP/1.1 403 Forbidden</tspan><tspan x="523" y="96.7">Server: Apache</tspan><tspan x="523" y="116.7">Date: Fri, 21 Jun 2024 12:52:39 GMT</tspan><tspan x="523" y="136.7">Content-Length: 678</tspan><tspan x="523" y="156.7">Content-Type: text/html</tspan><tspan x="523" y="176.7">Cache-Control: no-store</tspan><tspan x="523" y="216.7">&lt;!DOCTYPE html&gt;</tspan><tspan x="523" y="236.7">&lt;html lang=&quot;en&quot;&gt;</tspan><tspan x="523" y="256.7">(more data…)</tspan></text><text fill="#000" font-family="monospace" font-size="12" letter-spacing="0em" style="white-space:pre"><tspan x="147" y="33.7">Request</tspan></text><text fill="#000" font-family="monospace" font-size="12" letter-spacing="0em" style="white-space:pre"><tspan x="631" y="33.7">Response</tspan></text><text fill="#000" font-family="monospace" font-size="12" letter-spacing="0em" style="white-space:pre"><tspan x="374.5" y="76.7">Start line</tspan></text><text fill="#000" font-family="monospace" font-size="12" letter-spacing="0em" style="white-space:pre"><tspan x="385.3" y="137.7">Headers</tspan></text><text fill="#000" font-family="monospace" font-size="12" letter-spacing="0em" style="white-space:pre"><tspan x="374.5" y="198.7">Empty line</tspan></text><text fill="#000" font-family="monospace" font-size="12" letter-spacing="0em" style="white-space:pre"><tspan x="396.1" y="236.7">Body</tspan></text><path fill="#000" d="M318.6 71.6c-.1.2-.1.6 0 .8l3.2 3.1a.5.5 0 0 0 .7-.7l-2.8-2.8 2.8-2.8a.5.5 0 0 0-.7-.7l-3.2 3.1Zm.4.9h49v-1h-49v1Zm184.4-.1c.1-.2.1-.6 0-.8l-3.2-3.1a.5.5 0 0 0-.7.7l2.8 2.8-2.8 2.8a.5.5 0 0 0 .7.7l3.2-3.1Zm-49.4.1h49v-1h-49v1Zm-134.4 60.1c-.1.2-.1.6 0 .8l3.2 3.1a.5.5 0 0 0 .7-.7l-2.8-2.8 2.8-2.8a.5.5 0 0 0-.7-.7l-3.2 3.1Zm.4.9h48v-1h-48v1Zm181.4-.1c.1-.2.1-.6 0-.8l-3.2-3.1a.5.5 0 0 0-.7.7l2.8 2.8-2.8 2.8a.5.5 0 0 0 .7.7l3.2-3.1Zm-48.4.1h48v-1h-48v1Zm-134.4 60.1c-.1.2-.1.6 0 .8l3.2 3.1a.5.5 0 0 0 .7-.7l-2.8-2.8 2.8-2.8a.5.5 0 0 0-.7-.7l-3.2 3.1Zm.4.9h36v-1h-36v1Zm184.4-.1c.1-.2.1-.6 0-.8l-3.2-3.1a.5.5 0 0 0-.7.7l2.8 2.8-2.8 2.8a.5.5 0 0 0 .7.7l3.2-3.1Zm-48.4.1h48v-1h-48v1Zm-136.4 37.1c-.1.2-.1.6 0 .8l3.2 3.1a.5.5 0 0 0 .7-.7l-2.8-2.8 2.8-2.8a.5.5 0 0 0-.7-.7l-3.2 3.1Zm.4.9h49v-1h-49v1Zm183.4-.1c.1-.2.1-.6 0-.8l-3.2-3.1a.5.5 0 0 0-.7.7l2.8 2.8-2.8 2.8a.5.5 0 0 0 .7.7l3.2-3.1Zm-49.4.1h49v-1h-49v1Z"/></svg>
